public/img/icon/general/call-blue.svg

<svg width="44" height="44" viewBox="0 0 44 44" fill="none" xmlns="http://www.w3.org/2000/svg">
<path d="M19.4375 24.6027C21.4108 26.5656 23.6948 28.4408 24.5915 27.5354C25.8753 26.2393 26.6656 25.1117 29.5146 27.3887C32.3636 29.6667 30.1877 31.1997 28.9443 32.4556C27.5093 33.9044 22.1348 32.5571 16.8075 27.259C11.4805 21.9597 10.095 16.5843 11.5309 15.1347C12.7748 13.8788 14.2883 11.6875 16.5813 14.5259C18.8755 17.3629 17.7563 18.1635 16.4724 19.4599C15.5762 20.365 17.464 22.6394 19.4375 24.6027ZM22.2988 15.2381C22.2988 15.2381 21.7036 15.1449 21.2868 15.5629C20.8577 15.9928 20.839 16.7335 21.2911 17.1862C21.5583 17.4539 21.935 17.511 21.935 17.511C22.6695 17.649 23.7763 17.8828 24.9542 19.0628C26.1317 20.2428 26.365 21.352 26.5027 22.0883C26.5027 22.0883 26.5597 22.4659 26.8268 22.7336C27.2786 23.1864 28.0177 23.1679 28.4467 22.738C28.8635 22.3204 28.7708 21.7238 28.7708 21.7238C28.5376 20.2331 27.8165 18.6759 26.5784 17.4352C25.3399 16.1945 23.786 15.4722 22.2988 15.2381ZM27.8824 16.1283C30.0414 18.2918 30.9618 20.7473 30.6622 22.7369C30.6622 22.7369 30.5576 23.367 30.9682 23.7785C31.4305 24.2417 32.1631 24.215 32.5957 23.7818C32.8737 23.5033 32.9342 23.0498 32.9342 23.0498C33.1819 21.3304 32.8705 17.8713 29.5066 14.5007C26.1428 11.13 22.6914 10.8179 20.9756 11.0657C20.9756 11.0657 20.5235 11.1261 20.2451 11.405C19.8125 11.8386 19.7862 12.5728 20.2484 13.0359C20.6591 13.4475 21.2878 13.3427 21.2878 13.3427C23.2733 13.0424 25.7235 13.9648 27.8824 16.1283Z" fill="#007BFC"/>
</svg>

<svg width="44" height="44" fill="none" xmlns="http://www.w3.org/2000/svg"><path d="M19.438 24.603c1.973 1.963 4.257 3.838 5.154 2.932 1.283-1.296 2.074-2.423 4.923-.146 2.849 2.278.673 3.81-.57 5.067-1.436 1.448-6.81.101-12.137-5.197-5.328-5.3-6.713-10.675-5.277-12.124 1.244-1.256 2.757-3.447 5.05-.61 2.294 2.838 1.175 3.638-.109 4.935-.896.905.992 3.18 2.965 5.143zm2.86-9.365s-.594-.093-1.011.325c-.43.43-.448 1.17.004 1.623.267.268.644.325.644.325.735.138 1.841.372 3.02 1.552 1.177 1.18 1.41 2.289 1.548 3.025 0 0 .057.378.324.646.452.452 1.19.434 1.62.004.416-.418.324-1.014.324-1.014a7.847 7.847 0 0 0-6.472-6.486zm5.584.89c2.16 2.164 3.08 4.62 2.78 6.609 0 0-.104.63.306 1.042a1.153 1.153 0 0 0 1.628.003c.278-.279.338-.732.338-.732.248-1.72-.063-5.179-3.427-8.55-3.364-3.37-6.816-3.682-8.531-3.434 0 0-.453.06-.73.339a1.159 1.159 0 0 0 .002 1.63c.411.412 1.04.308 1.04.308 1.985-.3 4.436.622 6.594 2.785z" fill="#007BFC"/></svg>
